svgs/sharp-regular/mobile-button.svg

<svg xmlns="http://www.w3.org/2000/svg" viewBox="0 0 384 512"><!--! Font Awesome Pro 6.6.0 by @fontawesome - https://fontawesome.com License - https://fontawesome.com/license (Commercial License) Copyright 2024 Fonticons, Inc. --><path d="M64 48l0 416 256 0 0-416L64 48zM16 0L64 0 320 0l48 0 0 48 0 416 0 48-48 0L64 512l-48 0 0-48L16 48 16 0zM192 392a24 24 0 1 1 0 48 24 24 0 1 1 0-48z"/></svg>

<svg xmlns="http://www.w3.org/2000/svg" viewBox="0 0 384 512"><!--! Font Awesome Pro 6.4.2 by @fontawesome - https://fontawesome.com License - https://fontawesome.com/license (Commercial License) Copyright 2023 Fonticons, Inc. --><path d="M64 48V464H320V48H64zM16 0H64 320h48V48 464v48H320 64 16V464 48 0zM192 392a24 24 0 1 1 0 48 24 24 0 1 1 0-48z"/></svg>
